assets/images/icons/spyglass.svg

<svg height="48" viewBox="0 0 48 48" width="48" xmlns="http://www.w3.org/2000/svg"><path d="m38.4765585 35.0824459 8.8204978 8.8204978c.9372583.9372583.9372583 2.4568543 0 3.3941126s-2.4568543.9372583-3.3941126 0l-8.8204978-8.8204978c-3.69521 2.9559066-8.382413 4.7234415-13.4824459 4.7234415-11.9293506 0-21.6-9.6706494-21.6-21.6s9.6706494-21.6 21.6-21.6 21.6 9.6706494 21.6 21.6c0 5.1000329-1.7675349 9.7872359-4.7234415 13.4824459zm-4.7772322-1.8271073c2.9106972-3.0208709 4.7006737-7.129069 4.7006737-11.6553386 0-9.2783838-7.5216162-16.8-16.8-16.8s-16.8 7.5216162-16.8 16.8 7.5216162 16.8 16.8 16.8c4.5262696 0 8.6344677-1.7899765 11.6553386-4.7006737.0631614-.0821455.1323631-.1611405.2076051-.2363826.0752421-.075242.1542371-.1444437.2363826-.2076051z" fill="#232d37"/></svg>

<?xml version="1.0" encoding="UTF-8"?>
<svg width="48px" height="48px" viewBox="0 0 48 48" version="1.1" xmlns="http://www.w3.org/2000/svg" xmlns:xlink="http://www.w3.org/1999/xlink">
    <title></title>
    <desc></desc>
    <defs></defs>
    <g id="Design" stroke="none" stroke-width="1" fill="none" fill-rule="evenodd">
        <g id="Search-Desktop" transform="translate(-697.000000, -426.000000)" class="fill-layer" fill="#232D37" fill-rule="nonzero">
            <g id="Group-3" transform="translate(697.000000, 426.000000)">
                <path d="M38.4765585,35.0824459 L47.2970563,43.9029437 C48.2343146,44.840202 48.2343146,46.359798 47.2970563,47.2970563 C46.359798,48.2343146 44.840202,48.2343146 43.9029437,47.2970563 L35.0824459,38.4765585 C31.3872359,41.4324651 26.7000329,43.2 21.6,43.2 C9.6706494,43.2 0,33.5293506 0,21.6 C0,9.6706494 9.6706494,0 21.6,0 C33.5293506,0 43.2,9.6706494 43.2,21.6 C43.2,26.7000329 41.4324651,31.3872359 38.4765585,35.0824459 Z M33.6993263,33.2553386 C36.6100235,30.2344677 38.4,26.1262696 38.4,21.6 C38.4,12.3216162 30.8783838,4.8 21.6,4.8 C12.3216162,4.8 4.8,12.3216162 4.8,21.6 C4.8,30.8783838 12.3216162,38.4 21.6,38.4 C26.1262696,38.4 30.2344677,36.6100235 33.2553386,33.6993263 C33.3185,33.6171808 33.3877017,33.5381858 33.4629437,33.4629437 C33.5381858,33.3877017 33.6171808,33.3185 33.6993263,33.2553386 Z" id="Combined-Shape"></path>
            </g>
        </g>
    </g>
</svg>
